svgs/duotone/truck-pickup.svg

<svg xmlns="http://www.w3.org/2000/svg" viewBox="0 0 640 512"><!--! Font Awesome Pro 6.4.2 by @fontawesome - https://fontawesome.com License - https://fontawesome.com/license (Commercial License) Copyright 2023 Fonticons, Inc. --><path class="fa-primary" style="fill:var(--fa-primary-color,inherit);opacity:var(--fa-primary-opacity,1);" d="M288 96v96H445.4L368.6 96H288zM418.6 56L527.4 192H576c17.7 0 32 14.3 32 32v64c17.7 0 32 14.3 32 32s-14.3 32-32 32H581.2c-18-37.8-56.5-64-101.2-64s-83.2 26.2-101.2 64H261.2c-18-37.8-56.5-64-101.2-64s-83.2 26.2-101.2 64H32c-17.7 0-32-14.3-32-32s14.3-32 32-32V224c0-17.7 14.3-32 32-32H224V80c0-26.5 21.5-48 48-48h96.6c19.4 0 37.8 8.8 50 24z"/><path class="fa-secondary" style="fill:var(--fa-secondary-color,inherit);opacity:var(--fa-secondary-opacity,.4);" d="M160 480a80 80 0 1 0 0-160 80 80 0 1 0 0 160zm320 0a80 80 0 1 0 0-160 80 80 0 1 0 0 160z"/></svg>

<svg xmlns="http://www.w3.org/2000/svg" viewBox="0 0 640 512"><!--! Font Awesome Pro 6.1.1 by @fontawesome - https://fontawesome.com License - https://fontawesome.com/license (Commercial License) Copyright 2022 Fonticons, Inc. --><defs><style>.fa-secondary{opacity:.4}</style></defs><path class="fa-primary" d="M418.6 56.02L527.4 192H576C593.7 192 608 206.3 608 224V288C625.7 288 640 302.3 640 320C640 337.7 625.7 352 608 352H581.2C563.2 314.2 524.7 288 480 288C435.3 288 396.8 314.2 378.8 352H261.2C243.2 314.2 204.7 288 160 288C115.3 288 76.75 314.2 58.78 352H32C14.33 352 0 337.7 0 320C0 302.3 14.33 288 32 288V224C32 206.3 46.33 192 64 192H224V80C224 53.49 245.5 32 272 32H368.6C388.1 32 406.5 40.84 418.6 56.02zM288 192H445.4L368.6 96H288L288 192z"/><path class="fa-secondary" d="M80 400C80 355.8 115.8 320 160 320C204.2 320 240 355.8 240 400C240 444.2 204.2 480 160 480C115.8 480 80 444.2 80 400zM400 400C400 355.8 435.8 320 480 320C524.2 320 560 355.8 560 400C560 444.2 524.2 480 480 480C435.8 480 400 444.2 400 400z"/></svg>
